X:461
T:25th King's Own Scottish Borderer's Farewell To Meerut, The 
C:Joe Buchanan's Scottish Tome - Page 347.0
I:347 0
Z:Carl Allison
R:Pipe March
L:1/16
M:2/4
K:D
(A>d) | "D" {g}f4 "A" e>g(f<a) | "D" {fg}B2d2 c2e2 | "G" B4 (g>f)e>d | "A" {d}c2e2 e2(A>d) |
"D" {g}f4 "A" e>gf<a | "D" {fg}f2d2 d2g2 | "G" B>d "A" c<eA>a | "D" {fg}f2d2 {e}d2 :|
(f<g) | "D" a2 (3AAA "G" (g>f)(e>d) | "Em" {d}c2B2 B2e>f | "Em" {a}g2e2 G>Be>d | "A" {d}c2e2 e2(f<g) |
"D" a2 (3AAA (g>f)(e>d) | "G" {d}c2B2 f2g2 | "A" c>de<a g>ec<A | "D" {e}d4 d2 :|
A>d | "D" f>ef<a A>df<a | "D" {fg}f2d2 d2g2 | "G" (B<G)(B<d) "Em" g>fe>d | "A" {e}c2e2 e2(A<d) |
"D" f>ef<a A>df<a | "D" {fg}f2d2 d2g2 | "G" (B<G)(B<d) "A" (c<e)(A<a) | "D" {fg}f2d2 {e}d2 :|
f<g | "D" a>gf>d f>da>d | "G" {d}c2B2 B2e>f | "G" g>fg>e G>Be>d | "A" {d}c2e2 e2(f<g) |
"D" a>ga>d f>da>d | "G" {d}f2d2 d2g2 | "A7" A>ce>a g>ec>A | "D" {d}d4 {e}d2 :|

